X: 1
T: Veselinovo Horo 2
O: Bulgaria
Z: 2017 John Chambers <jc:trillian.mit.edu>
S: Handwritten MS at http://folkloretanznoten.de
L: 1/16
M: 12/16
K: Gm
"A"|:\
"Gm"G3- G3- G2D G2B | d3- d3- d2d c2d |\
"Cm"e3- e2d e3 g3 | "Gm"dd3- d3 d2B A2B |
"Cm"c3- c3- c2B A2B | "Gm"d3- d3- d2d e2d |\
"D"ddc ccB BBA cBA | "Gm"G3- G3 z3 "(D7)"z3 :|
"B"|:\
"D7"^fga g2f "Cm"e2d c3 | "Cm"cde ddc "Gm"BBA G3 |\
[1,3 "Gm"G2B A2B "Cm"c2d e2c | "Gm"d3- d3 gg2 gg2 :|
[2,4 "Gm"BB2 dd2 "D7"ccB A2B | "Gm"G3 "D7"D=E^F "Gm"G2 "(D7)"z2 :|\
"C"|:\
"Gm"B3- B3 B3- B3 | d3 c3 B3 BAG |
[1,3 "D7"A3- A3 A3- A3 | c3 B3 AGG G2A :|\
[2,4 "D7"A3- A3 c2B A2B | "Gm"G3 "D7"D=E^F "Gm"G3 "(D7)"z3 :|[K: =B=e][K:C]
"D"|:\
"C"GGG GGG GGG GGG | GGG G^FA G3 z3 |\
"G"FFF FFF FFF FFA | "G"G2F F2D [1,3 "C"EF^F GEC :|
[2,4 "C"E2C E2C :|\
"E"|:\
"G"FFF FFF FFF FFA | G2F E2D [1,3"C"EF^F GEC :|[2,4 "C"E2C E2C :|
